X:1
T:"French tune whose name completely escapes me"
M:2/4
L:1/8
R:Polka
D:Jabadaw?
Z:Steve Mansfield 29 January 2003
K:Ador
AA/B/ AG | FG A2 | AB/c/ d>c | BA BG | AA/B/ AG | FG A2 |
AB/c/ d>c | BA G2 :: dd e>d | cB A2 | AB/c/ dc |
BA BG | dd e>d | cB A2 | AB/c/ dc | BA G2 :|
<end>
<start>
